assets/awswaf/original.svg

<svg height="64" viewBox="0 0 64 64" width="64" xmlns="http://www.w3.org/2000/svg"><g fill="none" fill-rule="evenodd"><path d="m0 0h64v64h-64z" fill="#dd344c"/><path d="m16.929 30.397a18.6 18.6 0 0 0 3.04 1.692c-.477-2.376-.794-6.487 1.343-10.418 1.593-2.928 1.856-6.254.688-8.681a5.9 5.9 0 0 0 -1.922-2.292c.762 1.759 1.19 4.299.038 7.572a1 1 0 0 1 -1.825.142c-.331-.616-1.242-2.004-2.283-2.833.408 1.876.667 4.683-.673 6.788a8 8 0 0 0 -.201.334c-1.47 2.589-.682 5.97 1.795 7.696m7.542-16.242c.565 2.649.092 5.725-1.401 8.471-2.165 3.981-1.363 8.319-.909 10.025 1.956-.329 6.902-1.557 7.958-5.649 1.014-3.926.401-6.199-.309-7.424-.709 2.544-2.008 3.615-2.075 3.669a1.002 1.002 0 0 1 -1.614-.938c.606-3.768-.36-6.39-1.65-8.154m-10.821 7.135c1.609-2.527-.074-6.965-.091-7.01a1 1 0 0 1 .932-1.361c1.751 0 3.248 1.355 4.25 2.593.529-3.989-1.877-6.084-1.997-6.184a1.004 1.004 0 0 1 -.26-1.191.99.99 0 0 1 1.077-.561c1.474.261 2.773.822 3.85 1.633.955.427 5.726 2.839 6.714 8.7q.041-.264.072-.55a1 1 0 0 1 1.474-.774c.187.103 4.533 2.595 2.384 10.917-1.675 6.488-10.18 7.227-10.541 7.255l-.001-.01c-.022.002-.041.013-.063.013a1 1 0 0 1 -.335-.059c-2.054-.734-3.847-1.63-5.33-2.663-3.314-2.31-4.364-6.847-2.39-10.327a10 10 0 0 1 .255-.421m-8.16 12.66 1.621-1.173a18.2 18.2 0 0 1 -3.435-9.777h2.324v-2h-2.321a18.16 18.16 0 0 1 3.432-9.719l-1.621-1.173a20.16 20.16 0 0 0 -3.811 10.892h-1.679v2h1.676c.186 3.962 1.484 7.731 3.814 10.95m27.257 2.968a18.2 18.2 0 0 1 -9.747 3.433v-2.351h-2v2.351a18.2 18.2 0 0 1 -9.75-3.433l-1.172 1.621a20.2 20.2 0 0 0 10.922 3.812v1.649h2v-1.649c3.951-.191 7.709-1.489 10.919-3.812zm-21.497-29.778a18.2 18.2 0 0 1 9.75-3.432v2.292h2v-2.292a18.2 18.2 0 0 1 9.747 3.432l1.172-1.62a20.15 20.15 0 0 0 -10.919-3.812v-1.708h-2v1.708a20.16 20.16 0 0 0 -10.922 3.812zm31.07 13.86a20.2 20.2 0 0 0 -3.811-10.892l-1.621 1.173a18.2 18.2 0 0 1 3.432 9.719h-2.32v2h2.323a18.2 18.2 0 0 1 -3.435 9.777l1.621 1.173c2.329-3.219 3.628-6.988 3.814-10.95h1.677v-2zm-7.293-10.584 6.159-6.16-1.414-1.414-6.159 6.16zm-26.055 23.226-6.16 6.16 1.414 1.414 6.16-6.16zm3.442-22.641-10.828-10.828-1.414 1.414 10.828 10.828zm20.586 20.585 10.826 10.827-1.414 1.414-10.826-10.827z" fill="#fff" transform="translate(10 10)"/></g></svg>

<svg xmlns="http://www.w3.org/2000/svg" width="64" height="64" viewBox="0 0 64 64"><title>Icon-Architecture/48/Arch_AWS-WAF_48</title><g id="Icon-Architecture/48/Arch_AWS-WAF_48" fill="none" fill-rule="evenodd" stroke="none" stroke-width="1"><g id="Icon-Architecture-BG/48/Security-Identity-Compliance" fill="#dd344c"><path id="Rectangle" d="M0 0h64v64H0z"/></g><g id="Icon-Service/48/AWS-WAF_48" fill="#fff" transform="translate(10 10)"><path id="AWS-WAF_Icon_48_Squid" d="M16.929 30.397a18.6 18.6 0 0 0 3.04 1.692c-.477-2.376-.794-6.487 1.343-10.418 1.593-2.928 1.856-6.254.688-8.681a5.9 5.9 0 0 0-1.922-2.292c.762 1.759 1.19 4.299.038 7.572a1 1 0 0 1-1.825.142c-.331-.616-1.242-2.004-2.283-2.833.408 1.876.667 4.683-.673 6.788a8 8 0 0 0-.201.334c-1.47 2.589-.682 5.97 1.795 7.696m7.542-16.242c.565 2.649.092 5.725-1.401 8.471-2.165 3.981-1.363 8.319-.909 10.025 1.956-.329 6.902-1.557 7.958-5.649 1.014-3.926.401-6.199-.309-7.424-.709 2.544-2.008 3.615-2.075 3.669a1.002 1.002 0 0 1-1.614-.938c.606-3.768-.36-6.39-1.65-8.154M13.65 21.29c1.609-2.527-.074-6.965-.091-7.01a1 1 0 0 1 .932-1.361c1.751 0 3.248 1.355 4.25 2.593.529-3.989-1.877-6.084-1.997-6.184a1.004 1.004 0 0 1-.26-1.191.99.99 0 0 1 1.077-.561c1.474.261 2.773.822 3.85 1.633.955.427 5.726 2.839 6.714 8.7q.041-.264.072-.55a1 1 0 0 1 1.474-.774c.187.103 4.533 2.595 2.384 10.917-1.675 6.488-10.18 7.227-10.541 7.255l-.001-.01c-.022.002-.041.013-.063.013a1 1 0 0 1-.335-.059c-2.054-.734-3.847-1.63-5.33-2.663-3.314-2.31-4.364-6.847-2.39-10.327a10 10 0 0 1 .255-.421M5.49 33.95l1.621-1.173A18.2 18.2 0 0 1 3.676 23H6v-2H3.679a18.16 18.16 0 0 1 3.432-9.719L5.49 10.108A20.16 20.16 0 0 0 1.679 21H0v2h1.676c.186 3.962 1.484 7.731 3.814 10.95m27.257 2.968A18.2 18.2 0 0 1 23 40.351V38h-2v2.351a18.2 18.2 0 0 1-9.75-3.433l-1.172 1.621A20.2 20.2 0 0 0 21 42.351V44h2v-1.649c3.951-.191 7.709-1.489 10.919-3.812zM11.25 7.14A18.2 18.2 0 0 1 21 3.708V6h2V3.708a18.2 18.2 0 0 1 9.747 3.432l1.172-1.62A20.15 20.15 0 0 0 23 1.708V0h-2v1.708A20.16 20.16 0 0 0 10.078 5.52zM42.32 21a20.2 20.2 0 0 0-3.811-10.892l-1.621 1.173A18.2 18.2 0 0 1 40.32 21H38v2h2.323a18.2 18.2 0 0 1-3.435 9.777l1.621 1.173c2.329-3.219 3.628-6.988 3.814-10.95H44v-2zm-7.293-10.584 6.159-6.16-1.414-1.414-6.159 6.16zM8.972 33.642l-6.16 6.16 1.414 1.414 6.16-6.16zm3.442-22.641L1.586.173.172 1.587 11 12.415zM33 31.586l10.826 10.827-1.414 1.414L31.586 33z"/></g></g></svg>
